X:51
T:Miss Elders Reel
C:Robert Petrie
S:Petrie's Collection of Strathspey Reels and Country Dances &c., 1790
Z:Steve Wyrick , 3/20/04
N:Petrie's First Collection, page 22
L:1/8
V:1 name = "violin"
V:2 name = "bass" clef=bass middle=d transpose=-24
M:C
R:Reel
K:Em
[V:1] B|E/E/E BE GEBE|GEBG F(DD)F|E/E/E BE GEeB|cABF GEE:|
[V:2] z|E2    G2 E2G2|e2E2 D2 d2 |e2    g2 e2g2|a2b2 e2e:|
[V:1] B|efga b(gTfe)|defg afdf|efga b(gTfe)|Bbfa geef|
[V:2] z|z2e2 g2  e2 |f2d2 f2d2|g2e2 g2  e2 |g2b2 e2E2|
[V:1] efga b(gTfe)|defg afdf|bgaf  gef^d|.e(cTBA) GEE|]
[V:2] E2e2 g2  e2 |f2d2 f2d2|e2^d2 e2B2 | A2  B2  E2E|]
% The above code was written using Phil Taylor's BarFly abc reader/converter/player program.
% Other abc converters (e.g. abc2ps) may require everything after the word "bass" to be
% deleted in the V:2 header line for correct display of notes the bass clef, or require that
% the M: and K: fields be repeated directly under the V:1 header line to display the meter
% and key signature on both staffs.  Some abc MIDI players (e.g. abc2midi) will not play
% multiple-voiced abc code.  -SW
